icons/desktop/16/apple-16.svg

<svg width="16" height="16" viewBox="0 0 16 16" fill="none" xmlns="http://www.w3.org/2000/svg">
<g clip-path="url(#clip0_20192_1052)">
<path fill-rule="evenodd" clip-rule="evenodd" d="M10.5 4.00045C13.0769 4.00045 15.25 5.97036 15.25 8.50045C15.2499 9.68795 14.756 11.4928 13.9971 12.9907C13.6137 13.7473 13.1393 14.4744 12.583 15.0219C12.0322 15.5639 11.3272 16.0004 10.5 16.0004C9.75657 16.0004 9.05952 15.8319 8.43848 15.5415C8.16638 15.4142 7.83532 15.4136 7.56152 15.5415C6.94048 15.8319 6.24343 16.0004 5.5 16.0004C4.67285 16.0004 3.96782 15.5639 3.41699 15.0219C2.8607 14.4744 2.38633 13.7473 2.00293 12.9907C1.24398 11.4928 0.750135 9.68795 0.75 8.50045C0.75 5.97036 2.92313 4.00045 5.5 4.00045C6.06887 4.00045 6.61111 4.09831 7.11426 4.27584L7.33301 4.34322C7.84709 4.47727 8.37865 4.45441 8.88574 4.27584L9.07617 4.21334C9.52483 4.07561 10.0022 4.00045 10.5 4.00045ZM10.5 5.50045C10.1051 5.50045 9.73148 5.56852 9.38477 5.69088C8.48261 6.00851 7.51895 6.00837 6.61621 5.69088C6.2695 5.56852 5.89494 5.50045 5.5 5.50045C3.65887 5.50045 2.25 6.88853 2.25 8.50045C2.25015 9.38399 2.65232 10.9541 3.34082 12.3129C3.68116 12.9846 4.06818 13.5583 4.46875 13.9526C4.87484 14.3522 5.22294 14.5004 5.5 14.5004C6.01441 14.5004 6.4959 14.3845 6.92676 14.1831L7.05469 14.1274C7.70161 13.8682 8.44072 13.8864 9.07422 14.1831C9.50507 14.3845 9.98559 14.5004 10.5 14.5004C10.7771 14.5004 11.1252 14.3522 11.5312 13.9526C11.9318 13.5583 12.3188 12.9846 12.6592 12.3129C13.3477 10.9541 13.7499 9.38399 13.75 8.50045C13.75 6.88853 12.3411 5.50045 10.5 5.50045Z" fill="black"/>
<path d="M7.63086 0.631306C8.19786 0.0653055 9.03417 -0.137851 9.82617 0.0961493C9.98007 0.141208 10.1093 0.270348 10.1543 0.424274C10.3881 1.21605 10.1859 2.05172 9.61914 2.61861C9.05214 3.18561 8.21583 3.38777 7.42383 3.15377C7.26992 3.10871 7.14168 2.97958 7.0957 2.82564C6.86189 2.03486 7.06415 1.19823 7.63086 0.631306Z" fill="black"/>
</g>
<defs>
<clipPath id="clip0_20192_1052">
<rect width="16" height="16" fill="white"/>
</clipPath>
</defs>
</svg>

<!-- This Source Code Form is subject to the terms of the Mozilla Public
   - License, v. 2.0. If a copy of the MPL was not distributed with this
   - file, You can obtain one at http://mozilla.org/MPL/2.0/. -->
<svg xmlns="http://www.w3.org/2000/svg" width="16" height="16" fill="context-fill" fill-opacity="context-fill-opacity" viewBox="0 0 16 16">
    <path fill-rule="evenodd" d="M10.5 4c2.577 0 4.75 1.97 4.75 4.5 0 1.188-.494 2.993-1.253 4.49-.383.757-.858 1.484-1.414 2.032-.55.542-1.256.978-2.083.978a4.85 4.85 0 0 1-2.062-.459 1.05 1.05 0 0 0-.876 0 4.85 4.85 0 0 1-2.062.46c-.827 0-1.532-.437-2.083-.98-.556-.547-1.03-1.274-1.414-2.03C1.244 11.493.75 9.688.75 8.5.75 5.97 2.923 4 5.5 4c.569 0 1.111.097 1.614.275l.219.067a2.63 2.63 0 0 0 1.553-.067l.19-.063A4.8 4.8 0 0 1 10.5 4m0 1.5c-.395 0-.769.069-1.115.19a4.14 4.14 0 0 1-2.769 0A3.3 3.3 0 0 0 5.5 5.5c-1.841 0-3.25 1.389-3.25 3 0 .884.402 2.454 1.09 3.813.341.672.728 1.245 1.129 1.64.406.4.754.547 1.031.547.514 0 .996-.116 1.427-.317l.128-.056a2.55 2.55 0 0 1 2.02.056c.43.201.91.317 1.425.317.277 0 .625-.148 1.031-.547.4-.395.788-.968 1.128-1.64.689-1.359 1.09-2.929 1.091-3.813 0-1.611-1.409-3-3.25-3" clip-rule="evenodd" />
    <path d="M7.63.631A2.2 2.2 0 0 1 9.827.096a.5.5 0 0 1 .328.328c.234.792.032 1.628-.535 2.195s-1.403.769-2.195.535a.5.5 0 0 1-.328-.328A2.2 2.2 0 0 1 7.63.63" />
</svg>
